X: 1370
T: Meyleyledi Gönlüm Sana
C: Tanburî İsak
O: Turkey
F: http://compmusic.upf.edu/node/140
N: beyati--sarki--devrirevan--meyleyledi_gonlum--tanburi_isak
N: makam= beyati
N: form= sarki
N: usul= devrirevan = 14/8
M: 14/8
L: 1/16
K: C _2/4B   
Q: 1/4=72
%%MIDI tuningsystem comma53
G4c2B2c2dec4d12f4{g}f2e2e2d4e2dcBAG4  | \
w:  Meyl_ ey *  *  *  *  le *  di  *  *  a man  *  a man   | 
c2Bcd8{d}c2d2c2B2c3Be2{f}edc2d4cBc2d2e2{f}edd4z4  | 
w:  gön *  *  lüm  *  sa *  *  *  *  *  *  *  *  *  na    | 
A4f8g3fe2f2e2f2e2d2e2d4f2e2d2c2B2A2{c}BAG4  | 
w:  Bil mem  ne  *  *  *  *  *  *  *  hal  *  a man  *  *  a man   | 
c2Bcd6cBc6BAB3AG2A2G4A12f8  | A4f8g3fe2f2e2f2e2d2e2d4f2e2d2c2B2A2{c}BAG4  | 
w:  ol *  *  du  *  *  ba *  *  *  *  *  *  na   *  SAZ  |  Bil mem  ne  *  *  *  *  *  *  *  hal  *  a man  *  *  a man   | 
c2Bcd6cBc6BAB3AG2A2G4A12g4a4  | d8g2{a}g^3/4fg2abg2a6z4d'2c'2c'2b2b2a2a2g2g2^2/4f2f3e  | 
w:  ol *  *  du  *  *  ba *  *  *  *  *  *  na   *  SAZ  |  Gör dü *  *  *  *  *  *  ğüm  *  gün  | 
^3/4f2e2f2g2f4z4e2f2g2f2a2{b}agg2fga2g^2/4ff2efg2a2ag=fed4  | 
w:  den  *  *  *  *  be *  *  *  *  *  *  *  ri    | 
A4f8g3fe2f2e2f2e2d2{e}d2e4f2e2d2c2B2dcBAG4  | 
w:  Ben  müp te *  *  *  *  *  *  *  *  lâ  *  a man  *  *  a man   | 
c2Bcd6cBc6BAB3AG2A2G4A12z8  | G4c2B2c2dec4d12f4{g}f2e2e2d4e2dcBAG4  | 
w:  ol *  *  dum  *  *  sa *  *  *  *  *  *  na    |  Nev ci *  *  *  *  vâ *  nım  *  *  a man  *  a man   | 
c2Bcd8{d}c2d2c2B2c3Be2{f}edc2d4cBc2d2e2{f}edd4z4  | 
w:  gül  *  *  fi *  dâ *  *  *  *  *  *  *  *  *  nım    | 
A4f8g3fe2f2e2f2e2d2e2d4f2e2d2c2B2A2{c}BAG4  | 
w:  Bil mem  ne  *  *  *  *  *  *  *  hal  *  a man  *  *  a man   | 
c2Bcd6cBc6BAB3AG2A2G4A12|
w:  ol *  *  du  *  *  ba *  *  *  *  *  *  na    | 


